X:1
T:Brurleken \aat Sulhusgubba (pols)
R:rorospols
Z:Sm\aaviltlaget, p\aa Skuddhold, Track 4
M:3/4
L:1/8
K:D
|: "D"f2 ((3def) (3d(ef) | "Em"(g>f) e3 (d | "A7"c>B) (B<A) B>c \
|1,3 "D"d>(B A<G) F>D |2,4 "D"d2 d4 :|
|: "D"a>(g f<d) de/f/ | "Em"g>(f e<d) c>c | "A"(c>B) (B<A) B>c \
|1,3 "A7"((3 cBc) a4 |2,4 "D"d2 d4 :|
